X: 12228
T: Fair Wind, The
R: reel
M: 4/4
K: Amajor
|:A3E A3B|cBAB cBBc|A3E A2AB|1 cBAF FEEE:|2 cBAF FEE2||
|:ceec A3B|c2ec dBBd|ceec A2AB|1 cABF FEEd:|2 cBAF FEE2||
|:AFFF d3B|cBAB cBBc|1 AFFF d2dB|cBAF FEE2:|2 ce3 f2ec|BdcA BAFE||

